!!!COM: Scarlatti, Domenico
!!!CDT: 1685///-1757///
!!!OTL: Sonata in G Major, K.425, L.333
!!!SCT: K. 425
!!!SCT: L. 333
**kern	**kern	**dynam
*staff2	*staff1	*staff1/2
*Icemba	*Icemba	*Icemba
*>[A,A,B,B]	*>[A,A,B,B]	*>[A,A,B,B]
*>norep[A,B]	*>norep[A,B]	*>norep[A,B]
*>A	*>A	*>A
*clefG2	*clefG2	*clefG2
*k[f#]	*k[f#]	*k[f#]
*G:	*G:	*G:
*M3/8	*M3/8	*M3/8
*MM132	*MM132	*MM132
=1-	=1-	=1-
8r	4.dd\	p
(8g/L	.	.
8b/J)	.	.
=2	=2	=2
8r	4.cc\	.
(8a/L	.	.
8f#/J)	.	.
=3	=3	=3
8r	(4.b\	.
(8g/L	.	.
8B/J	.	.
*clefF4	*	*
=4	=4	=4
8c'\L)	8ee'\L)	mf
8d'\	8a'\	.
8D'\J	8cc'\J	.
*clefG2	*	*
=5	=5	=5
8r	4.dd\	p
(8g/L	.	.
8b/J)	.	.
=6	=6	=6
8r	4.cc\	.
(8a/L	.	.
8f#/J)	.	.
=7	=7	=7
8r	(4.b\	.
(8g/L	.	.
8B/J	.	.
*clefF4	*	*
=8	=8	=8
8c'\L)	8ee\L)	mf
8d'\	8a'\	.
8D'\J	8cc'\J	.
=9	=9	=9
(4.G\	(8b\L	p
.	8dd\	.
.	8gg\J	.
=10	=10	=10
4.D\)	8ff#\L	<
.	8a\	.
.	8cc\J)	.
=11	=11	=11
8r	(4.b\	.
(8G\L	.	.
8d\J	.	.
=12	=12	=12
8c\L	4.f#/ 4.a/)	.
8A\	.	.
8D\J)	.	.
=13	=13	=13
4.G\ (4.B\	8r	.
.	(8b\L	mf
.	8dd\J	.
=14	=14	=14
4.A\ 4.c\	8cc/L	.
.	8a/	.
.	8f#/J	.
=15	=15	=15
4.B\ 4.d\	8g\L)	.
.	(8dd\	.
.	8ff#\J	.
=16	=16	=16
4.c#\ 4.e\)	8ee\L	.
.	8cc#\	.
.	8a\J)	.
=17	=17	=17
8r	4.aa\	f
(8d\L	.	.
8f#\J)	.	.
=18	=18	=18
8r	4.gg\	.
(8e\L	.	.
8c#\J)	.	.
=19	=19	=19
8r	(4.ff#\	.
(8d\L	.	.
8D\J	.	.
=20	=20	=20
8G'\L)	8ee'\L)	.
8A'\	8dd'\ 8ff#'\	.
8AA'\J	8cc#'\ 8gg'\J	.
=21	=21	=21
8r	4.aa\	.
(8d\L	.	.
8f#\J)	.	.
=22	=22	=22
8r	4.gg\	.
(8e\L	.	.
8c#\J)	.	.
=23	=23	=23
8r	(4.ff#\	.
(8d\L	.	.
8D\J	.	.
=24	=24	=24
8G'\L)	8ee'\L)	.
8A'\	8dd'\ 8ff#'\	.
8AA'\J	8cc#'\ 8gg'\J	.
=25	=25	=25
(4.D\	16dd\ (16ff#\LL	.
.	16ee\	.
.	16dd\	.
.	16cc#\	.
.	16b\	.
.	16a\JJ	.
=26	=26	=26
4.GG/	16g/LL	.
.	16f#/	.
.	16e/	.
.	16d/	.
.	16c#/	.
.	16B/JJ	.
=27	=27	=27
4.AA/)	4.A/)	.
=28	=28	=28
4.r;	4.r;	.
=29	=29	=29
8r	(4.fn/	p
(8A\L	.	.
8d\J)	.	.
=30	=30	=30
8r	4.g#/	.
(8A\L	.	.
8e\J)	.	.
=31	=31	=31
8r	4.a/	.
(8A\L	.	.
8fn\J)	.	.
=32	=32	=32
8r	4.b-\ 4.cc#\)	.
(8A\L	.	.
8g\J	.	.
=33	=33	=33
*	*^	*
8fn\L	(8dd/L	4.a\	<
8e\	8ee/	.	.
8d\J)	[8ffn/J	.	.
=34	=34	=34	=34
(4.EE/	8ffn/L]	4.g#\	mf
.	8ee/	.	.
.	8dd/J	.	.
=35	=35	=35	=35
4.AAA/)	8cc#/L	4.a\	.
.	8dd/	.	.
.	8ee/J)	.	.
*	*v	*v	*
=36	=36	=36
4.r	(8g/L	>
.	8fn/	.
.	8e/J	.
=37	=37	=37
8r	4.fn/	p
(8A\L	.	.
8d\J)	.	.
=38	=38	=38
8r	4.g#/	.
(8A\L	.	.
8e\J)	.	.
=39	=39	=39
8r	4.a/	.
(8A\L	.	.
8fn\J)	.	.
=40	=40	=40
8r	4.b-\ 4.cc#\)	.
(8A\L	.	.
8g\J	.	.
=41	=41	=41
*	*^	*
8fn\L	(8dd/L	4.a\	<
8e\	8ee/	.	.
8d\J)	[8ffn/J	.	.
=42	=42	=42	=42
(4.EE/	8ffn/L]	4.g#\	.
.	8ee/	.	.
.	8dd/J	.	.
=43	=43	=43	=43
4.AAA/)	8ee/L	4.gn\	.
.	8ffn/	.	.
.	[8gg/J	.	.
=44	=44	=44	=44
(4.AAA/	8gg/L]	4.cc#\	.
.	8ffn/	.	.
.	8ee/J	.	.
=45	=45	=45	=45
4.DD/	8ffn/L	8dd\	.
.	8gg/	4r	.
.	[8aa/J	.	.
*	*v	*v	*
=46	=46	=46
4.FFn/	16aa\LL]	.
.	16gg\	.
.	16ffn\	.
.	16ee\	.
.	16dd\	.
.	16ccn\JJ	.
=47	=47	=47
4.GG/	16b-\LL	.
.	16a\	.
.	16g\	.
.	16ffn\	.
.	16ee\	.
.	16dd\JJ	.
=48	=48	=48
4.AA/	8dd'\)	.
.	cc#q/	.
.	(4cc#\	.
=49	=49	=49
4DD/)	8dd'\L)	f
.	(16a\L	.
.	16ff#\	.
(8D\	16ee\	.
.	16dd\JJ	.
=50	=50	=50
8C#'\L)	8aa'\L)	.
(8AA\	(16a\L	.
.	16gg\	.
8G\J	16ff#\	.
.	16ee\JJ	.
=51	=51	=51
8F#'\L)	8dd'\L)	.
(8D\	(16a\L	.
.	16ff#\	.
8d\J	16ee\	.
.	16dd\JJ	.
=52	=52	=52
8c#'\L)	8aa'\L)	.
(8A\	(16a\L	.
.	16gg\	.
8c#\J	16ff#\	.
.	16ee\JJ	.
=53	=53	=53
4d\)	8dd'\L)	.
.	(16a\L	.
.	16ff#\	.
(8D\	16ee\	.
.	16dd\JJ	.
=54	=54	=54
8F#'\L)	16aa\LL	.
.	16gg\	.
8D'\	16ff#\	.
.	16ee\	.
8F#'\J	16dd\	.
.	16cc#\JJ	.
=55	=55	=55
4G\	16b\LL	.
.	16a\	.
.	16g\	.
.	16gg\	.
(8GG/	16ff#\	.
.	16ee\JJ	.
=56	=56	=56
4AA/	8dd'\)	.
.	(cc#q/	.
.	(4cc#\)	.
8AAA/	.	.
=57	=57	=57
4DD/)	8dd'\L)	.
.	(16a\L	p
.	16ff#\	.
(8D\	16ee\	.
.	16dd\JJ	.
=58	=58	=58
8C#'\L)	8aa'\L)	.
(8AA\	(16a\L	.
.	16gg\	.
8G\J	16ff#\	.
.	16ee\JJ	.
=59	=59	=59
8F#'\L)	8dd'\L)	<
(8D\	(16a\L	.
.	16ff#\	.
8d\J	16ee\	.
.	16dd\JJ	.
=60	=60	=60
8c#'\L)	8aa'\L)	.
(8A\	(16a\L	.
.	16gg\	.
8c#\J	16ff#\	.
.	16ee\JJ	.
=61	=61	=61
4d\)	8dd'\L)	.
.	(16a\L	.
.	16ff#\	.
(8D\	16ee\	.
.	16dd\JJ	.
=62	=62	=62
8F#'\L)	16aa\LL	f
.	16gg\	.
8D'\	16ff#\	.
.	16ee\	.
8F#'\J	16dd\	.
.	16cc#\JJ	.
=63	=63	=63
(4.GG/	16b/LL	.
.	16a/	.
.	16g/	.
.	16f#/	.
.	16e/	.
.	16d/JJ	.
*	*clefF4	*clefF4
=64	=64	=64
4.AA/	16c#\LL	.
.	16B\	.
.	16A\	.
.	16G\	.
.	16F#\	.
.	16E\JJ	.
=65	=65	=65
4.DD/)	4.D\)	.
*	*clefG2	*clefG2
=66:|!|:	=66:|!|:	=66:|!|:
*>B	*>B	*>B
8r	4.f#\ 4.dd\	p
(8D\L	.	.
8d\J)	.	.
=67	=67	=67
8r	4.g\ 4.dd\	.
(8E\L	.	.
8d\J)	.	.
=68	=68	=68
8r	4.a\ 4.dd\	.
(8F#\L	.	.
8d\J)	.	.
=69	=69	=69
8r	4.b\ 4.dd\	.
(8G#\L	.	.
8e\J)	.	.
=70	=70	=70
(4.A\	8a\ (8cc\L	.
.	8b\ 8dd\	.
.	8cc\ 8ee\J)	.
=71	=71	=71
4.D\	8g#\ (8b\L	<
.	8a\ 8cc\	.
.	[8b\ [8dd\J	.
=72	=72	=72
4.E\	8b\] 8dd\L]	>
.	8a\ 8cc\	.
.	8g#\ 8b\J)	.
=73	=73	=73
4.EE/)	4.r	.
=74	=74	=74
8r	4.g#\ 4.ee\	p
(8E\L	.	.
8e\J)	.	.
=75	=75	=75
8r	4.a#\ 4.ee\	.
(8F#\L	.	.
8e\J)	.	.
=76	=76	=76
8r	4.b\ 4.ee\	.
(8G#\L	.	.
8e\J)	.	.
=77	=77	=77
8r	4.cc#\ 4.ee\	.
(8A#\L	.	.
8f#\J)	.	.
=78	=78	=78
(4.B\	8b\ (8dd\L	.
.	8cc#\ 8ee\	.
.	8dd\ 8ff#\J)	.
=79	=79	=79
4.E\	8a#\ (8cc#\L	<
.	8b\ 8dd\	.
.	[8cc#\ [8ee\J	.
=80	=80	=80
4.F#\	8cc#\] 8ee\L]	>
.	8b\ 8dd\	.
.	8a#\ 8cc#\J)	.
=81	=81	=81
4.FF#/)	4.r	.
*clefG2	*	*
=82	=82	=82
8r	4.ff#\	p
(8b\L	.	.
8dd\J)	.	.
=83	=83	=83
8r	4.ee\	.
(8cc#\L	.	.
8a#\J)	.	.
=84	=84	=84
8r	4.dd\	<
(8b/L	.	.
8d/J	.	.
=85	=85	=85
8e/L)	4.cc#\	mf
8f#'/	.	.
8F#'/J	.	.
=86	=86	=86
8r	4.ff#\	p
(8b\L	.	.
8dd\J)	.	.
=87	=87	=87
8r	4.ee\	.
(8ccn\L	.	.
8a\J)	.	.
=88	=88	=88
8r	(4dd#\	.
(8b/L	.	.
8g/J)	8bb\)	.
=89	=89	=89
8r	(4cc\	.
(8a/L	.	.
8f#/J)	8aa\)	.
=90	=90	=90
8r	(4b\	.
(8d#/L	.	.
8e/J)	8gg\)	.
*clefF4	*	*
=91	=91	=91
8r	(4a\	.
(8c\L	.	.
8dn\J)	8ff#\)	.
=92	=92	=92
8r	(4g/	<
(8B\L	.	.
8c\J)	8ee\)	.
=93	=93	=93
8r	(4f#/	.
(8A\L	.	.
8B\J)	8dd\)	.
=94	=94	=94
8r	(4e/	.
(8G\L	.	.
8A\J)	8cc\)	.
=95	=95	=95
(8F#\L	4d/	mf
8G\)	.	.
8GG'\J	([8b^/	.
=96	=96	=96
4.CC^/	8b/L]	.
.	8a'/)	.
.	8g'/J	.
=97	=97	=97
(4C/	(8f#/L	.
.	8a/	.
[8BB/)	8g/J	.
=98	=98	=98
8BB/L]	8d'/L)	f
8AA'/	8c'/	.
8GG'/J	8B'/J	.
*	*clefF4	*clefF4
=99	=99	=99
4.DD/	8A'\L	.
.	(8d\	mf
.	8B\J	.
=100	=100	=100
4.DD/	8c\L	.
.	8F#\)	.
.	8G'\ 8B'\J	f
=101	=101	=101
4.DD/	8F#'\ (8A'\L	.
.	8d\	p
.	8B\J	.
=102	=102	=102
4.DD/	8c\L	.
.	8F#\)	.
.	8G'\ 8B'\J	.
=103	=103	=103
4.DD/	8F#'\ 8A'\L	<
.	8G\ (8B\	.
.	8A\ 8c#\J	.
=104	=104	=104
4.DD/	8B\ 8d\L	.
.	8c#\ 8e\)	.
.	([8G'\ 8c#'\J	mf
=105	=105	=105
*	*^	*
4.DD/	4.d^/	8G\L]	>
.	.	16F#\L	.
.	.	16E\J	.
.	.	8D'\J)	.
*	*v	*v	*
=106	=106	=106
4.r;	4.r;	.
*clefG2	*clefG2	*clefG2
=107	=107	=107
8r	4.b-\	p
(8d/L	.	.
8g/J)	.	.
=108	=108	=108
8r	4.cc#\	.
(8d/L	.	.
8a/J)	.	.
=109	=109	=109
8r	4.dd\	.
(8d/L	.	.
8b-/J)	.	.
=110	=110	=110
8r	4.ee-\ 4.ff#\	.
(8d/L	.	.
8cc/J	.	.
=111	=111	=111
*	*^	*
8b-/L	(8gg/L	4.dd\	<
8a/	8aa/	.	.
8g/J)	[8bb-/J	.	.
*clefF4	*	*	*
=112	=112	=112	=112
(4.AA/	8bb-/L]	4.cc#\	mf
.	8aa/	.	.
.	8gg/J	.	.
=113	=113	=113	=113
4.DD/)	8ff#/L	8dd\	.
.	8gg/	4r	.
.	8aa/J)	.	.
*	*v	*v	*
=114	=114	=114
4.r	(8ccn\L	>
.	8b-\	.
.	8a\J	.
*clefG2	*	*
=115	=115	=115
8r	4.b-\	p
(8d/L	.	.
8g/J)	.	.
=116	=116	=116
8r	4.cc#\	.
(8d/L	.	.
8a/J)	.	.
=117	=117	=117
8r	4.dd\	.
(8d/L	.	.
8b-/J)	.	.
=118	=118	=118
8r	4.ee-\ 4.ff#\)	.
(8d/L	.	.
8cc/J	.	.
=119	=119	=119
*	*^	*
8b-/L	(8gg/L	4.dd\	<
8a/	8aa/	.	.
8g/J)	[8bb-/J	.	.
*clefF4	*	*	*
=120	=120	=120	=120
(4.AA/	8bb-/L]	4.cc#\	.
.	8aa/	.	.
.	8gg/J	.	.
=121	=121	=121	=121
4.DD/)	8aa/L	4.ccn\	.
.	8bb-/	.	.
.	[8ccc/J	.	.
=122	=122	=122	=122
(4.DD/	8ccc/L]	4.ff#\	.
.	8bb-/	.	.
.	8aa/J	.	.
=123	=123	=123	=123
4.GG/	8bb-/L	8gg\	.
.	8ccc/	4r	.
.	[8ddd/J	.	.
*	*v	*v	*
=124	=124	=124
4.BB-/	16ddd\LL]	.
.	16ccc\	.
.	16bb-\	.
.	16aa\	.
.	16gg\	.
.	16ffn\JJ	.
=125	=125	=125
4.C/	16ee-\LL	.
.	16dd\	.
.	16cc\	.
.	16ccc\	.
.	16bb-\	.
.	16aa\JJ	.
=126	=126	=126
4.D/	8gg'\)	.
.	(ff#q/	.
.	(4ff#\)	.
=127	=127	=127
4GG/)	(8gg'\L)	f
.	16dd\L	.
.	16bbn\	.
(8G\	16aa\	.
.	16gg\JJ	.
=128	=128	=128
8F#'\L)	8ddd'\L)	.
(8D\	(16dd\L	.
.	16ccc\	.
8F#\J	16bb\	.
.	16aa\JJ	.
=129	=129	=129
8G'\L)	8gg'\L)	.
(8GG\	(16dd\L	.
.	16bb\	.
8G\J	16aa\	.
.	16gg\JJ	.
=130	=130	=130
8F#'\L)	8ddd'\L)	.
(8D\	(16dd\L	.
.	16ccc\	.
8F#\J	16bb\	.
.	16aa\JJ	.
=131	=131	=131
4G\)	8gg'\L)	.
.	(16dd\L	.
.	16bb\	.
(8GG/	16aa\	.
.	16gg\JJ	.
=132	=132	=132
8BB'/L)	16ddd\LL	.
.	16ccc\	.
8GG'/	16bb\	.
.	16aa\	.
8BB'/J	16gg\	.
.	16ff#\JJ	.
=133	=133	=133
4C/	16ee\LL	.
.	16dd\	.
.	16cc\	.
.	16ccc\	.
(8c\	16bb\	.
.	16aa\JJ	.
=134	=134	=134
4d\	8gg'\)	.
.	ff#q/	.
.	(4ff#\	.
8D\	.	.
=135	=135	=135
4GG/)	8gg'\L)	.
.	(16dd\L	p
.	16bb\	<
(8G\	16aa\	.
.	16gg\JJ	.
=136	=136	=136
8F#'\L)	8ddd'\L)	.
(8D\	16dd\L	.
.	16ccc\	.
8F#\J	16bb\	.
.	16aa\JJ	.
=137	=137	=137
8G'\L)	8gg'\L	.
(8GG\	(16dd\L	.
.	16bb\	.
8G\J	16aa\	.
.	16gg\JJ	.
=138	=138	=138
8F#'\L)	8ddd'\L)	.
(8D\	(16dd\L	.
.	16ccc\	.
8F#\J	16bb\	.
.	16aa\JJ	.
=139	=139	=139
4G\)	8gg'\L)	.
.	(16dd\L	.
.	16bb\	.
(8GG/	16aa\	.
.	16gg\JJ	.
=140	=140	=140
8BB/L)	16ddd\LL	f
.	16ccc\	.
8GG'/	16bb\	.
.	16aa\	.
8BB'/J	16gg\	.
.	16ff#\JJ	.
=141	=141	=141
4C/	16ee\LL	.
.	16dd\	.
.	16cc\	.
.	16b\	.
(8CC/	16a\	.
.	16g\JJ	.
=142	=142	=142
4DD/)	16f#/LL	.
.	16e/	.
.	16d/	.
.	16c/	.
8DD'/	16B/	.
.	16A/JJ	.
=143	=143	=143
4.GGG/	4.G/)	.
==:|!	==:|!	==:|!
*-	*-	*-
!!!ENC: Craig Stuart Sapp
!!!END: 2004/10/27/
